**kern	**kern	**dynam
*part1	*part1	*part1
*staff2	*staff1	*
*I"Piano	*	*
*clefF4	*clefG2	*
*k[f#c#g#d#]	*k[f#c#g#d#]	*
=1	=1	=1
4EE 4E	4G# 4B 4e	.
4r	4r	.
2r	2b	.
=	=	=
*	*^	*
4r	2.b	2.g#	.
(4E	.	.	.
4e	.	.	.
4d#	4b	(4f#	.
=	=	=	=
4c#	2.ee	4e	.
4B	.	4dd#	.
4A	.	4cc#	.
4G#)	4ee	4b)	.
=	=	=	=
(4F#	(2ee	2.a	.
2f#	.	.	.
.	4dd#	.	.
4e	4cc#)	4a	.
=	=	=	=
4d#	2.b	2.a	.
4c#	.	.	.
4B	.	.	.
4A)	4b	4d#	.
=	=	=	=
(4G#	2.g# 2.b	2.e	.
!	!LO:TX:a:i:t=cresc.	!	!
4F#	.	.	.
4E	.	.	.
4D#	4g# 4b#X	4f#	.
=	=	=	=
4C#	2cc#	2e 2g#	.
4BB	.	.	.
4AA	2ff#	(4cc#	.
4FF#)	.	4a)	.
*	*v	*v	*
=	=	=
(4BB	2g# 2b 2ee	p
4BBB	.	.
4BB	4f# 4b 4dd#	.
4AA#X	4r	.
=	=	=
4BB	2r	.
4C#	.	.
4BB	2f# 2b 2dd#	.
4AAn)	.	.
=	=	=
(4GG#	2f# 2g# 2b#X 2dd#	.
4D#	.	.
4G#	2g# 2b# 2dd#	.
4F#	.	.
=	=	=
*-	*-	*-
!!!system-decoration: {(s1,s2)}
